resources/haticons/SVG/save-file.svg

<!-- Generated by IcoMoon.io -->
<svg version="1.1" xmlns="http://www.w3.org/2000/svg" width="24" height="24" viewBox="0 0 24 24">
<title>save-file</title>
<path d="M21.177 9.177c0-0.24-0.097-0.426-0.254-0.551-0.082-0.155-0.178-0.305-0.311-0.437l-7.624-7.624c-0.117-0.079-0.248-0.155-0.384-0.227-0.116-0.206-0.325-0.338-0.604-0.338-0.082 0-0.154 0.019-0.223 0.040-0.113-0.021-0.227-0.040-0.342-0.040h-5.082c-1.977 0-3.53 1.553-3.53 3.529v16.941c0 1.976 1.553 3.529 3.529 3.529h11.294c1.976 0 3.529-1.553 3.529-3.529v-10.729c0-0.137-0.010-0.273-0.028-0.406 0.012-0.053 0.029-0.101 0.029-0.158zM18.918 8.471h-4.094c-1.129 0-2.118-0.988-2.118-2.118v-4.095zM17.648 22.588h-11.294c-1.129 0-2.118-0.988-2.118-2.118v-16.942c0-1.129 0.988-2.118 2.118-2.118h4.941v4.941c0 1.976 1.553 3.529 3.529 3.529h4.941v10.588c0.001 1.13-0.987 2.118-2.117 2.118zM14.965 13.412l-3.812 3.812c0 0.141-0.141 0.141-0.282 0.141 0 0-0.141 0-0.282-0.141l-1.553-1.553c-0.282-0.282-0.706-0.282-0.988 0s-0.282 0.706 0 0.988l1.553 1.553c0.282 0.423 0.706 0.565 1.271 0.565s0.988-0.282 1.271-0.565l3.811-3.812c0.282-0.282 0.282-0.706 0-0.988s-0.706-0.282-0.988 0z"></path>
</svg>

<svg xmlns="http://www.w3.org/2000/svg" width="24" height="24"><path d="M21.177 9.177a.678.678 0 0 0-.254-.551 1.757 1.757 0 0 0-.311-.437L12.988.565a4.227 4.227 0 0 0-.384-.227A.663.663 0 0 0 12 0a.749.749 0 0 0-.223.04 1.878 1.878 0 0 0-.342-.04H6.353a3.495 3.495 0 0 0-3.53 3.529V20.47a3.495 3.495 0 0 0 3.529 3.529h11.294a3.495 3.495 0 0 0 3.529-3.529V9.741c0-.137-.01-.273-.028-.406.012-.053.029-.101.029-.158zm-2.259-.706h-4.094c-1.129 0-2.118-.988-2.118-2.118V2.258zm-1.27 14.117H6.354c-1.129 0-2.118-.988-2.118-2.118V3.528c0-1.129.988-2.118 2.118-2.118h4.941v4.941a3.495 3.495 0 0 0 3.529 3.529h4.941v10.588c.001 1.13-.987 2.118-2.117 2.118zm-2.683-9.176l-3.812 3.812c0 .141-.141.141-.282.141 0 0-.141 0-.282-.141l-1.553-1.553c-.282-.282-.706-.282-.988 0s-.282.706 0 .988l1.553 1.553c.282.423.706.565 1.271.565s.988-.282 1.271-.565l3.811-3.812c.282-.282.282-.706 0-.988s-.706-.282-.988 0z"/></svg>
